X: 296
T:Tant pire
M:3/8
L:1/16
S:Joseph Perrier
R:Bourrée
D:Violoneux et chanteurs traditionelles en Auvergne
Z:Stoney
K:D
"(´x´refers to notes plucked with the left hand)"(efgagf)|(efgfed)|(cdef
ed)|((3cdc A2  d2)  |(efgagf)|(efgfed)|(fdegec)|1d6      |(d3   e d2)  :
|2d6     | [F2d2]  z2 "x"e2 || (dcBABc)|(d2   e2)   "x"e2 |(dcBABc)|d2
z2   "x"e2 | (d2  A2)  "x"e2 |(d2  A2)  "x"e2 | (dcBABc)| d6   |"D.C."(d
3  e d2)||
W:
W: From "Falaleiro" http://home.t-online.de/home/pheld/homepage.htm

